X: 13131
T: First Day Of Spring, The
R: jig
M: 6/8
K: Dmajor
|:dcd AFD|GBG AFE|DFA Ged|cBc Afe|
dcd AFD|GBG AFE|DFA GEA|1 DED Dfe:|2 DED DFA||
|:AFA dcd|BGB ede|cBc Afe|dcB AFG|
AFA dcd|BGB edB|Ace dAF|1 DED DFG:|2 DED D2F||
|:GFG Eed|cBc AGF|GFG Ecd|edB A2A|
dfd ecA|GBG AFE|DFA GEA|1 DED D2A:|2 DED Ddc||

